src/assets/icon/roam.svg

<svg width="100" height="100" viewBox="0 0 100 100" fill="none" xmlns="http://www.w3.org/2000/svg">
<g id="roam" clip-path="url(#clip0_2250_88123)">
<path id="ROAM" d="M13.5451 100V83.2H20.4571C21.9451 83.2 23.2171 83.44 24.2731 83.92C25.3451 84.4 26.1691 85.088 26.7451 85.984C27.3211 86.88 27.6091 87.944 27.6091 89.176C27.6091 90.408 27.3211 91.472 26.7451 92.368C26.1691 93.248 25.3451 93.928 24.2731 94.408C23.2171 94.872 21.9451 95.104 20.4571 95.104H15.2731L16.6651 93.688V100H13.5451ZM24.5371 100L20.2891 93.904H23.6251L27.8971 100H24.5371ZM16.6651 94.024L15.2731 92.536H20.3131C21.6891 92.536 22.7211 92.24 23.4091 91.648C24.1131 91.056 24.4651 90.232 24.4651 89.176C24.4651 88.104 24.1131 87.28 23.4091 86.704C22.7211 86.128 21.6891 85.84 20.3131 85.84H15.2731L16.6651 84.304V94.024ZM38.9718 100.24C37.6598 100.24 36.4518 100.024 35.3478 99.592C34.2438 99.16 33.2838 98.56 32.4678 97.792C31.6518 97.008 31.0198 96.096 30.5718 95.056C30.1238 94 29.8998 92.848 29.8998 91.6C29.8998 90.352 30.1238 89.208 30.5718 88.168C31.0198 87.112 31.6518 86.2 32.4678 85.432C33.2838 84.648 34.2438 84.04 35.3478 83.608C36.4518 83.176 37.6518 82.96 38.9478 82.96C40.2598 82.96 41.4598 83.176 42.5478 83.608C43.6518 84.04 44.6118 84.648 45.4278 85.432C46.2438 86.2 46.8758 87.112 47.3238 88.168C47.7718 89.208 47.9958 90.352 47.9958 91.6C47.9958 92.848 47.7718 94 47.3238 95.056C46.8758 96.112 46.2438 97.024 45.4278 97.792C44.6118 98.56 43.6518 99.16 42.5478 99.592C41.4598 100.024 40.2678 100.24 38.9718 100.24ZM38.9478 97.504C39.7958 97.504 40.5798 97.36 41.2998 97.072C42.0198 96.784 42.6438 96.376 43.1718 95.848C43.6998 95.304 44.1078 94.68 44.3958 93.976C44.6998 93.256 44.8518 92.464 44.8518 91.6C44.8518 90.736 44.6998 89.952 44.3958 89.248C44.1078 88.528 43.6998 87.904 43.1718 87.376C42.6438 86.832 42.0198 86.416 41.2998 86.128C40.5798 85.84 39.7958 85.696 38.9478 85.696C38.0998 85.696 37.3158 85.84 36.5958 86.128C35.8918 86.416 35.2678 86.832 34.7238 87.376C34.1958 87.904 33.7798 88.528 33.4758 89.248C33.1878 89.952 33.0438 90.736 33.0438 91.6C33.0438 92.448 33.1878 93.232 33.4758 93.952C33.7798 94.672 34.1958 95.304 34.7238 95.848C35.2518 96.376 35.8758 96.784 36.5958 97.072C37.3158 97.36 38.0998 97.504 38.9478 97.504ZM48.6925 100L56.2525 83.2H59.3245L66.9085 100H63.6445L57.1405 84.856H58.3885L51.9085 100H48.6925ZM52.1725 96.112L53.0125 93.664H62.0845L62.9245 96.112H52.1725ZM69.0451 100V83.2H71.6131L78.9571 95.464H77.6131L84.8371 83.2H87.4051L87.4291 100H84.4771L84.4531 87.832H85.0771L78.9331 98.08H77.5411L71.3011 87.832H72.0211V100H69.0451Z" fill="url(#paint0_linear_2250_88123)"/>
<g id="Roam" clip-path="url(#clip1_2250_88123)">
<path id="Union" fill-rule="evenodd" clip-rule="evenodd" d="M14.9999 59.6434V7L22.7163 0H37.4L26.9 9.8L26.9 30.1H45.1L14.9999 59.6434ZM31.8 13.3L45.1 0H80.1L66.8 13.3H31.8ZM85.0001 63V10.3566L54.9 39.9H73.1V60.2L62.6 70H77.2837L85.0001 63ZM68.2 56.7L54.9 70H19.9L33.2 56.7H68.2Z" fill="url(#paint1_linear_2250_88123)"/>
</g>
</g>
<defs>
<linearGradient id="paint0_linear_2250_88123" x1="7.30691" y1="91.5001" x2="91.4451" y2="91.5001" gradientUnits="userSpaceOnUse">
<stop stop-color="#AB750F"/>
<stop offset="0.516" stop-color="#D8A956"/>
<stop offset="1" stop-color="#AB750F"/>
</linearGradient>
<linearGradient id="paint1_linear_2250_88123" x1="11.7276" y1="35.0003" x2="86.2807" y2="35.0003" gradientUnits="userSpaceOnUse">
<stop stop-color="#AB750F"/>
<stop offset="0.516" stop-color="#D8A956"/>
<stop offset="1" stop-color="#AB750F"/>
</linearGradient>
<clipPath id="clip0_2250_88123">
<rect width="100" height="100" fill="white"/>
</clipPath>
<clipPath id="clip1_2250_88123">
<rect width="70" height="70" fill="white" transform="translate(15)"/>
</clipPath>
</defs>
</svg>

<svg xmlns="http://www.w3.org/2000/svg" width="100" height="100" fill="none" xmlns:v="https://vecta.io/nano"><g clip-path="url(#C)"><path d="M13.545 100V83.2h6.912c1.488 0 2.76.24 3.816.72 1.072.48 1.896 1.168 2.472 2.064s.864 1.96.864 3.192-.288 2.296-.864 3.192c-.576.88-1.4 1.56-2.472 2.04-1.056.464-2.328.696-3.816.696h-5.184l1.392-1.416V100h-3.12zm10.992 0l-4.248-6.096h3.336L27.897 100h-3.36zm-7.872-5.976l-1.392-1.488h5.04c1.376 0 2.408-.296 3.096-.888.704-.592 1.056-1.416 1.056-2.472 0-1.072-.352-1.896-1.056-2.472-.688-.576-1.72-.864-3.096-.864h-5.04l1.392-1.536v9.72zm22.307 6.216c-1.312 0-2.52-.216-3.624-.648s-2.064-1.032-2.88-1.8c-.816-.784-1.448-1.696-1.896-2.736C30.124 94 29.9 92.848 29.9 91.6s.224-2.392.672-3.432c.448-1.056 1.08-1.968 1.896-2.736.816-.784 1.776-1.392 2.88-1.824s2.304-.648 3.6-.648c1.312 0 2.512.216 3.6.648 1.104.432 2.064 1.04 2.88 1.824.816.768 1.448 1.68 1.896 2.736.448 1.04.672 2.184.672 3.432s-.224 2.4-.672 3.456-1.08 1.968-1.896 2.736-1.776 1.368-2.88 1.8c-1.088.432-2.28.648-3.576.648zm-.024-2.736c.848 0 1.632-.144 2.352-.432s1.344-.696 1.872-1.224c.528-.544.936-1.168 1.224-1.872.304-.72.456-1.512.456-2.376s-.152-1.648-.456-2.352c-.288-.72-.696-1.344-1.224-1.872a5.34 5.34 0 0 0-1.872-1.248c-.72-.288-1.504-.432-2.352-.432s-1.632.144-2.352.432a5.65 5.65 0 0 0-1.872 1.248c-.528.528-.944 1.152-1.248 1.872-.288.704-.432 1.488-.432 2.352 0 .848.144 1.632.432 2.352.304.72.72 1.352 1.248 1.896.528.528 1.152.936 1.872 1.224s1.504.432 2.352.432zM48.693 100l7.56-16.8h3.072l7.584 16.8h-3.264l-6.504-15.144h1.248L51.909 100h-3.216zm3.48-3.888l.84-2.448h9.072l.84 2.448H52.173zM69.045 100V83.2h2.568l7.344 12.264h-1.344L84.837 83.2h2.568l.024 16.8h-2.952l-.024-12.168h.624L78.933 98.08h-1.392l-6.24-10.248h.72V100h-2.976z" fill="url(#A)"/><g clip-path="url(#D)"><path fill-rule="evenodd" d="M15 59.643V7l7.716-7H37.4L26.9 9.8v20.3h18.2L15 59.643zM31.8 13.3L45.1 0h35L66.8 13.3h-35zM85 63V10.357L54.9 39.9h18.2v20.3L62.6 70h14.684L85 63zm-16.8-6.3L54.9 70h-35l13.3-13.3h35z" fill="url(#B)"/></g></g><defs><linearGradient id="A" x1="7.307" y1="91.5" x2="91.445" y2="91.5" gradientUnits="userSpaceOnUse"><stop stop-color="#ab750f"/><stop offset=".516" stop-color="#d8a956"/><stop offset="1" stop-color="#ab750f"/></linearGradient><linearGradient id="B" x1="11.728" y1="35" x2="86.281" y2="35" gradientUnits="userSpaceOnUse"><stop stop-color="#ab750f"/><stop offset=".516" stop-color="#d8a956"/><stop offset="1" stop-color="#ab750f"/></linearGradient><clipPath id="C"><path fill="#fff" d="M0 0h100v100H0z"/></clipPath><clipPath id="D"><path fill="#fff" transform="translate(15)" d="M0 0h70v70H0z"/></clipPath></defs></svg>
